assets/svg/hot-o.svg

<?xml version="1.0" encoding="UTF-8"?>
<svg width="1000px" height="1000px" viewBox="0 0 1000 1000" version="1.1" xmlns="http://www.w3.org/2000/svg" xmlns:xlink="http://www.w3.org/1999/xlink">
    <!-- Generator: sketchtool 52.4 (67378) - http://www.bohemiancoding.com/sketch -->
    <title>hot-o</title>
    <desc>Created with sketchtool.</desc>
    <g id="新版图标" stroke="none" stroke-width="1" fill="none" fill-rule="evenodd">
        <g id="hot-o" fill="#323233" fill-rule="nonzero">
            <g id="圆角-hot1-线">
                <path d="M470.172438,865.550326 C488.384716,853.960069 511.662185,853.969407 529.865158,865.574273 C562.212532,886.19656 586.377656,892.049656 603.799654,887.381446 C621.221652,882.713236 639.222716,865.561743 656.92522,831.528632 C666.898201,812.355549 687.085079,800.706074 708.675561,801.664462 C746.970958,803.364373 770.813591,796.35413 783.585929,783.581792 C796.358267,770.809454 803.36851,746.96682 801.6686,708.671423 C800.71021,687.080912 812.359718,666.894012 831.532841,656.921045 C865.565886,639.218638 882.717349,621.217605 887.385584,603.795517 C892.053818,586.373428 886.200732,562.208345 865.578454,529.861088 C853.973561,511.658132 853.964189,488.380663 865.55442,470.168368 C886.18149,437.756047 892.040235,413.567602 887.385584,396.196208 C882.730933,378.824814 865.562888,360.806378 831.493162,343.05002 C812.371064,333.084022 800.743103,312.953118 801.664711,291.409526 C803.307959,252.996856 796.284179,229.108182 783.585929,216.409933 C770.88768,203.711683 746.999007,196.687904 708.586336,198.331151 C687.042715,199.252761 666.911788,187.624767 656.945805,168.502629 C639.189544,134.432969 621.17114,117.264954 603.799654,112.610279 C586.428169,107.955603 562.239766,113.814338 529.827562,134.441399 C511.622086,146.027327 488.354473,146.022662 470.153645,134.429434 C437.773852,113.80475 413.59709,107.948835 396.200346,112.610279 C378.803602,117.271722 360.793869,134.431475 343.064488,168.482871 C333.095001,187.630461 312.936127,199.269193 291.369084,198.329226 C253.015019,196.657622 229.149371,203.674632 216.414071,216.409933 C203.67877,229.145233 196.66176,253.010882 198.333364,291.364946 C199.273683,312.940074 187.625943,333.105172 168.467159,343.070679 C134.434114,360.773086 117.282651,378.774119 112.614416,396.196208 C107.946182,413.618297 113.799268,437.78338 134.421546,470.130637 C146.026439,488.333593 146.035811,511.611062 134.44558,529.823357 C113.81851,562.235677 107.959765,586.424122 112.614416,603.795517 C117.269067,621.166911 134.437112,639.185346 168.506838,656.941705 C187.628936,666.907702 199.256897,687.038606 198.335289,708.582198 C196.692041,746.994869 203.715821,770.883542 216.414071,783.581792 C229.11232,796.280041 253.000993,803.303821 291.413664,801.660574 C312.957285,800.738964 333.088212,812.366958 343.054195,831.489095 C360.810456,865.558756 378.82886,882.72677 396.200346,887.381446 C413.571831,892.036121 437.760234,886.177387 470.172438,865.550326 Z M500,912.419679 C455.555311,940.70419 416.162481,950.245627 381.82151,941.043992 C347.480539,931.842356 318.136066,903.882814 293.788092,857.165365 C241.13527,859.417788 202.24936,847.984501 177.130361,822.865502 C152.011362,797.746503 140.578074,758.860592 142.830497,706.207771 C96.1130215,681.859696 68.1534792,652.515224 58.9518705,618.174352 C49.7502618,583.833481 59.2916993,544.440651 87.5761831,499.995862 C59.276812,455.606634 49.7353744,416.213804 58.9518705,381.817372 C68.1683665,347.420941 96.1279089,318.076468 142.830497,293.783954 C140.537474,241.171732 151.970762,202.285822 177.130361,177.126223 C202.28996,151.966624 241.17587,140.533336 293.788092,142.82636 C318.108386,96.1163275 347.452858,68.1567851 381.82151,58.9477328 C416.190161,49.7386804 455.582991,59.2801179 500,87.5720454 C544.444689,59.2875349 583.837519,49.7460973 618.17849,58.9477328 C652.519461,68.1493682 681.863934,96.1089105 706.211908,142.82636 C758.86473,140.573936 797.75064,152.007224 822.869639,177.126223 C847.988638,202.245222 859.421926,241.131132 857.169503,293.783954 C903.886978,318.132028 931.846521,347.476501 941.04813,381.817372 C950.249738,416.158243 940.708301,455.551073 912.423817,499.995862 C940.723188,544.385091 950.264626,583.777921 941.04813,618.174352 C931.831633,652.570784 903.872091,681.915257 857.169503,706.207771 C859.503126,758.779392 848.069838,797.665303 822.869639,822.865502 C797.66944,848.065701 758.78353,859.498988 706.211908,857.165365 C681.919295,903.86798 652.574822,931.827522 618.17849,941.043992 C583.782158,950.260461 544.389328,940.719024 500,912.419679 Z M225.280925,486.649043 L256.673514,478.237424 L278.097979,558.194617 L375.227187,532.168924 L353.802722,452.211731 L385.195311,443.800112 L436.527755,635.375401 L405.135166,643.78702 L382.416605,559.000197 L285.287397,585.02589 L308.005958,669.812713 L276.613368,678.224332 L225.280925,486.649043 Z M496.075201,410.063861 C525.321288,402.227395 550.912479,405.435442 572.920668,419.956312 C593.836342,433.619614 608.284306,455.342622 616.192665,484.857022 C624.101025,514.371422 622.378331,540.139768 611.096477,562.430371 C599.225368,585.741596 578.666769,601.315441 549.420682,609.151906 C519.906282,617.060266 494.243196,613.583907 472.575215,599.259455 C451.587647,585.32784 437.47989,563.801251 429.715318,534.823477 C421.878853,505.577389 423.333234,479.880938 434.543194,457.322021 C446.002202,433.546066 466.560801,417.972221 496.075201,410.063861 Z M503.480301,437.700072 C483.625159,443.020241 470.128688,453.826028 462.722575,470.189326 C455.709299,485.87221 455.212585,504.410214 461.107908,526.411858 C466.931336,548.145189 476.630506,563.951214 490.545623,574.026352 C504.800947,584.297909 522.160439,586.835864 542.015581,581.515695 C561.870723,576.195526 575.439089,565.658052 582.792571,550.171587 C589.877741,534.757015 590.570874,515.878804 584.531763,493.340535 C578.492652,470.802266 568.381382,454.531509 554.466265,444.456371 C540.282835,434.453127 523.335443,432.379903 503.480301,437.700072 Z M594.47924,387.722652 L751.442187,345.664557 L758.631605,372.49583 L695.846426,389.319068 L739.989452,554.063084 L708.596863,562.474703 L664.453837,397.730687 L601.668658,414.553925 L594.47924,387.722652 Z" id="Star"></path>
            </g>
        </g>
    </g>
</svg>

<svg width="1000" height="1000" xmlns="http://www.w3.org/2000/svg"><path d="M470.172 865.55a55.556 55.556 0 0 1 59.693.024c32.348 20.623 56.513 26.476 73.935 21.807 17.422-4.668 35.423-21.82 53.125-55.852a55.556 55.556 0 0 1 51.75-29.865c38.296 1.7 62.139-5.31 74.91-18.082 12.773-12.773 19.784-36.615 18.084-74.91a55.556 55.556 0 0 1 29.864-51.751c34.033-17.702 51.184-35.703 55.853-53.125 4.668-17.423-1.185-41.588-21.808-73.935a55.556 55.556 0 0 1-.024-59.693c20.627-32.412 26.486-56.6 21.832-73.972-4.655-17.371-21.823-35.39-55.893-53.146a55.556 55.556 0 0 1-29.828-51.64c1.643-38.413-5.38-62.302-18.08-75-12.697-12.698-36.586-19.722-74.999-18.079a55.556 55.556 0 0 1-51.64-29.828c-17.756-34.07-35.775-51.238-53.146-55.893-17.372-4.654-41.56 1.204-73.972 21.831a55.556 55.556 0 0 1-59.674-.012c-32.38-20.624-56.557-26.48-73.954-21.819-17.396 4.662-35.406 21.821-53.136 55.873a55.556 55.556 0 0 1-51.695 29.846c-38.354-1.671-62.22 5.346-74.955 18.08-12.735 12.736-19.752 36.602-18.08 74.956a55.556 55.556 0 0 1-29.867 51.706c-34.033 17.702-51.184 35.703-55.853 53.125-4.668 17.422 1.185 41.587 21.808 73.935a55.556 55.556 0 0 1 .024 59.692c-20.627 32.413-26.486 56.601-21.832 73.973 4.655 17.37 21.823 35.39 55.893 53.146a55.556 55.556 0 0 1 29.828 51.64c-1.643 38.413 5.38 62.302 18.08 75 12.697 12.698 36.586 19.722 74.999 18.079a55.556 55.556 0 0 1 51.64 29.828c17.756 34.07 35.775 51.238 53.146 55.892 17.372 4.655 41.56-1.204 73.972-21.83zM500 912.42c-44.445 28.284-83.838 37.826-118.178 28.624-34.341-9.202-63.686-37.161-88.034-83.879-52.653 2.253-91.539-9.18-116.658-34.3-25.119-25.118-36.552-64.004-34.3-116.657-46.717-24.348-74.677-53.693-83.878-88.034-9.202-34.34.34-73.733 28.624-118.178-28.3-44.39-37.84-83.782-28.624-118.179 9.216-34.396 37.176-63.74 83.878-88.033-2.293-52.612 9.14-91.498 34.3-116.658 25.16-25.16 64.046-36.593 116.658-34.3 24.32-46.71 53.665-74.67 88.034-83.878 34.368-9.21 73.761.332 118.178 28.624 44.445-28.284 83.838-37.826 118.178-28.624 34.341 9.201 63.686 37.16 88.034 83.878 52.653-2.252 91.539 9.181 116.658 34.3 25.119 25.12 36.552 64.005 34.3 116.658 46.717 24.348 74.677 53.693 83.878 88.033 9.202 34.341-.34 73.734-28.624 118.179 28.3 44.39 37.84 83.782 28.624 118.178-9.216 34.397-37.176 63.741-83.878 88.034 2.333 52.571-9.1 91.457-34.3 116.658-25.2 25.2-64.086 36.633-116.658 34.3-24.293 46.702-53.637 74.662-88.034 83.878-34.396 9.216-73.789-.325-118.178-28.624zM225.28 486.649l31.394-8.412 21.424 79.958 97.13-26.026-21.425-79.957 31.392-8.412 51.333 191.575-31.393 8.412L382.417 559l-97.13 26.026 22.719 84.787-31.393 8.411-51.332-191.575zm270.795-76.585c29.246-7.837 54.837-4.629 76.846 9.892 20.915 13.664 35.363 35.387 43.272 64.901 7.908 29.514 6.185 55.283-5.097 77.573-11.87 23.312-32.43 38.885-61.675 46.722-29.515 7.908-55.178 4.432-76.846-9.893-20.987-13.931-35.095-35.458-42.86-64.436-7.836-29.246-6.382-54.942 4.828-77.501 11.46-23.776 32.018-39.35 61.532-47.258zm7.405 27.636c-19.855 5.32-33.351 16.126-40.757 32.49-7.014 15.682-7.51 34.22-1.615 56.222 5.823 21.733 15.523 37.54 29.438 47.614 14.255 10.272 31.614 12.81 51.47 7.49 19.855-5.32 33.423-15.858 40.777-31.344 7.085-15.415 7.778-34.293 1.739-56.831-6.04-22.539-16.15-38.81-30.066-48.885-14.183-10.003-31.13-12.076-50.986-6.756zm91-49.977l156.962-42.058 7.19 26.83-62.786 16.824 44.143 164.744-31.392 8.412-44.143-164.744-62.785 16.823-7.19-26.831z" fill="#323233" fill-rule="nonzero"/></svg>
